X: 5
T: Zhen hunhun genzai ni houtou
%%abc-version 2.0
%%abcx-abcm2ps-target-version 5.9.1 (29 Sep 2008)
%%abc-creator hum2abc beta
%%abcx-conversion-date 2013/10/02 07:52:29
%%abc-edited-by Helmut Schaffrath
%%humdrum-veritas 2145584834
%%humdrum-veritas-data 275354914
%%continueall 1
%%barnumbers 0
L: 1/8
M: 4/8
K: Eb
c Bc2- [I:setbarnb 1]| 
[M:5/8]c e B G F | 
[M:4/8]G2c E | 
F4 | 
c Bc2- | 
[M:5/8]c e B G F | 
[M:4/8]G E B, G, | 
B,4 |]  



